X: 35255
T: Rose Amang The Heather, The
R: strathspey
M: 4/4
K: Dmajor
e|f>gf>e d>ed>B|A>FA>d c<ee2|f>gf>e d>ed>B|1 c>de>g f<dd:|2 A>ce>g f<ddf||
A<D F/E/D F<AA>d|B>A B/c/d c<ee<f|A<D F/E/D F<AA>d|c>de>g f<dd2:|
F<AD>A F/G/A d>G|F<AD>F G<EE>G|F/G/A D>A F/G/A d>F|G/F/E A>G F<D D2:|
a>fd>f g>fe>d|g>e f/e/d c<e (3efg|a>fd>f g>fe>d|(3fga (3efg f<dd2:|
f2(3agf e2(3gfe|d2(3fed c2(3edc|B>c(3dcB A>df>a|g>fe>d c<aa>g|
(3fef (3agf (3ede (3gfe|(3dcd (3fed (3cBc (3edc|B>c (3dcB A>df>a|g>fe>a f<dd2||

